!!!COM: Beethoven, Ludwig van
!!!CDT: 1770///-1827///
!!!OTL: Piano Sonata no. 3 in C major
!!!ODT: 1794///-1795///
!!!ODE: Joseph Haydn
!!!OMD: Allegro assai
!!!OPS: 2
!!!ONM: 3
!!!OMV: 4
**kern	**kern	**dynam
*Ipiano	*Ipiano	*Ipiano
*staff2	*staff1	*staff1
*clefF4	*clefG2	*clefG2
*k[]	*k[]	*k[]
*C:	*C:	*C:
*M6/8	*M6/8	*M6/8
*MM180	*MM180	*MM180
8r	8g/	p
=1	=1	=1
4CC/ 4C/	8e'/ 8g'/ 8cc'/L	.
.	8d'/ 8f'/ 8b'/	.
8r	8e'/ 8g'/ 8cc'/J	.
4r	8f'\ 8a'\ 8dd'\L	.
.	8g'\ 8b'\ 8ee'\	.
8r	8a'\ 8cc'\ 8ff'\J	.
=2	=2	=2
4r	8b'\ 8dd'\ 8gg'\L	.
.	8cc'\ 8ee'\ 8aa'\	.
8r	8dd'\ 8ff'\ 8bb'\J	.
4r	8ee'\ 8gg'\ 8ccc'\L	.
.	8ff'\ 8aa'\ 8ddd'\	.
*clefG2	*	*
8gg'\	8ccc'\ 8eee'\J	.
=3	=3	=3
4aa'\	4ccc'\ 4fff'\	.
8gg'\	8ccc'\ 8eee'\	.
4aa'\	4ccc'\ 4fff'\	.
8gg'\	8ccc\ 8eee\	.
=4	=4	=4
4ff#\	4ccc'\ 4ddd'\	.
8r	8r	.
4r	4r	.
*clefF4	*	*
8r	8d/	.
=5	=5	=5
4GGG/ 4GG/	8B'/ 8d'/ 8g'/L	.
.	8A'/ 8c'/ 8f#'/	.
8r	8B'/ 8d'/ 8g'/J	.
4r	8c'/ 8e'/ 8a'/L	.
.	8d'/ 8fn'/ 8b'/	.
8r	8e'/ 8g'/ 8cc'/J	.
=6	=6	=6
4r	8f'\ 8a'\ 8dd'\L	.
.	8g'\ 8b'\ 8ee'\	.
8r	8a'\ 8cc'\ 8ff'\J	.
4r	8b'\ 8dd'\ 8gg'\L	.
.	8cc'\ 8ee'\ 8aa'\	.
*clefG2	*	*
8g'/	8dd'\ 8ff'\ 8bb'\J	.
=7	=7	=7
4c'/ 4cc'/	4ee'\ 4gg'\ 4ccc'\	.
8g'/ 8b'/	8ff'\ 8gg'\ 8ddd'\	.
4c'/ 4cc'/	4ee'\ 4gg'\ 4ccc'\	.
8g'/ 8b'/	8ff'\ 8gg'\ 8ddd'\	.
=8	=8	=8
4c'/ 4cc'/	4ee'\ 4gg'\ 4ccc'\	.
8r	8r	.
4r	16aa\LL	.
.	16gg\	.
.	16ff\	.
.	16ee\	.
8r	16dd\	.
.	16cc\JJ	.
*clefF4	*	*
=9	=9	=9
*	*^	*
[2.G\	16b/LL	4.d\ 4.f\	.
.	16cc/	.	.
.	16b/	.	.
.	16a/	.	.
.	16b/	.	.
.	16g/JJ	.	.
.	16cc/LL	4.c\ 4.e\	.
.	16dd/	.	.
.	16cc/	.	.
.	16b/	.	.
.	16cc/	.	.
.	16g/JJ	.	.
=10	=10	=10	=10
4G\]	16dd/LL	4B\ 4d\	.
.	16ee/	.	.
.	16dd/	.	.
.	16cc#/	.	.
8r	16dd/	8r	.
.	16g/JJ	.	.
4r	16gg/LL	4.r	.
.	16ff/	.	.
.	16ee/	.	.
.	16dd/	.	.
8r	16ccn/	.	.
.	16b/JJ	.	.
=11	=11	=11	=11
[2.G\	16cc/LL	4.e\ 4.g\	.
.	16dd/	.	.
.	16cc/	.	.
.	16b/	.	.
.	16cc/	.	.
.	16g/JJ	.	.
.	16dd/LL	4.d\ 4.f\	.
.	16ee/	.	.
.	16dd/	.	.
.	16cc#/	.	.
.	16dd/	.	.
.	16g/JJ	.	.
=12	=12	=12	=12
4G\]	16ee/LL	4c\ 4e\	.
.	16ff/	.	.
.	16ee/	.	.
.	16dd#/	.	.
8r	16ee/	8r	.
.	16cc/JJ	.	.
4r	16aa/LL	4.r	.
.	16gg/	.	.
.	16ff/	.	.
.	16ee/	.	.
8r	16ddn/	.	.
.	16cc/JJ	.	.
=13	=13	=13	=13
[2.G\	16ff#/LL	(4.c\ 4.a\	.
.	16gg/	.	.
.	16ff#/	.	.
.	16ee/	.	.
.	16ff#/	.	.
.	16dd/JJ	.	.
.	16gg/LL	4.B\) 4.g\	.
.	16aa/	.	.
.	16gg/	.	.
.	16ff#/	.	.
.	16gg/	.	.
.	16dd/JJ	.	.
=14	=14	=14	=14
2.G\]	16aa/LL	2.c\ 2.f#\	.
.	16bb/	.	.
.	16aa/	.	.
.	16gg#/	.	.
.	16aa/	.	.
.	16dd/JJ	.	.
.	16ddd/LL	.	.
.	16ccc/	.	.
.	16bb/	.	.
.	16aa/	.	.
.	16ggn/	.	.
.	16ff#/JJ	.	.
=15	=15	=15	=15
2.G\	16gg/LL	(4.B\ 4.g\	.
.	16aa/	.	.
.	16gg/	.	.
.	16ff#/	.	.
.	16gg/	.	.
.	16dd/JJ	.	.
.	16ddd/LL	4.c\) 4.a\	.
.	16eee/	.	.
.	16ddd/	.	.
.	16ccc#/	.	.
.	16ddd/	.	.
.	16ff#/JJ	.	.
=16	=16	=16	=16
2.G\	16gg/LL	(4.B\ 4.g\	.
.	16aa/	.	.
.	16gg/	.	.
.	16ff#/	.	.
.	16gg/	.	.
.	16dd/JJ	.	.
.	16ddd/LL	4.c\) 4.a\	.
.	16eee/	.	.
.	16ddd/	.	.
.	16ccc#/	.	.
.	16ddd/	.	.
.	16ff#/JJ	.	.
=17	=17	=17	=17
4G\	16gg/LL	4B\ 4g\	.
.	16aa/	.	.
.	16gg/	.	.
.	16ff#/	.	.
8r	16gg/	8r	.
.	16aa/JJ	.	.
4r	4.r	16bb\LL	.
.	.	16ccc\	.
.	.	16bb\	.
.	.	16aa#\	.
8r	.	16bb\	.
.	.	16ccc\JJ	.
*	*v	*v	*
=18	=18	=18
2.r	16ddd\LL	.
.	16eee\	.
.	16ddd\	.
.	16ccc#\	.
.	16ddd\	.
.	16eee\JJ	.
.	16fffn\LL	.
.	16ddd\	.
.	16bb\	.
.	16gg\	.
.	16ffn\	.
.	16dd\JJ	.
=19	=19	=19
4C\ 4c\	8e'/ 8g'/ 8cc'/L	.
.	8d'/ 8f'/ 8b'/	.
8r	8e'/ 8g'/ 8cc'/J	.
4r	8f'/ 8a'/ 8dd'/L	.
.	8g'/ 8b'/ 8ee'/	.
8r	8a'/ 8cc'/ 8ff'/J	.
=20	=20	=20
4r	8b'\ 8dd'\ 8gg'\L	.
.	8cc'\ 8ee'\ 8aa'\	.
8r	8dd'\ 8ff'\ 8bb'\J	.
4r	8ee'\ 8gg'\ 8ccc'\L	.
.	8ff'\ 8aa'\ 8ddd'\	.
*clefG2	*	*
8gg'\	8ccc'\ 8eee'\J	.
=21	=21	=21
4aa'\	4ccc'\ 4fff'\	.
8gg'\	8bb'\ 8eee'\	.
4aa'\	4ccc'\ 4fff'\	.
8gg'\	8bb'\ 8eee'\	.
=22	=22	=22
4ff#'\	4aa'\ 4bb'\ 4ddd#'\	.
8r	8r	.
4r	4r	.
8r	8bb\	.
=23	=23	=23
4g'/ 4b'/	4ee'\ 4eee'\	.
8f#'/ 8a'/	8dd#'\ 8ddd#'\	.
4g'/ 4b'/	4ee'\ 4eee'\	.
8f#'/ 8a'/	8ddn'\ 8dddn'\	.
=24	=24	=24
4e'/ 4g'/	4cc#'\ 4ccc#'\	.
8r	8r	.
4r	4r	.
8r	8aa\	.
=25	=25	=25
4f#'/ 4a'/	4dd'\ 4ddd'\	f
8e'/ 8g'/	8ccn'\ 8cccn'\	.
4d'/ 4f#'/	4b'\ 4bb'\	.
8c'/ 8e'/	8a'\ 8aa'\	.
*clefF4	*	*
=26	=26	=26
4B'\ 4d'\	4g'\ 4gg'\	.
8A'\ 8c'\	8f#'\ 8ff#'\	.
4G'\ 4B'\	4e'\ 4ee'\	.
8F#'\ 8A'\	8d'\ 8dd'\	.
=27	=27	=27
4E'\ 4G'\	4c'/ 4cc'/	.
8D'\ 8F#'\	8B'/ 8b'/	.
4C'\ 4E'\	4A'/ 4a'/	.
8BB'/ 8D'/	8G#'/ 8g#'/	.
=28	=28	=28
4C/ 4E/	4A'/ 4a'/	.
8BB'/ 8D'/	8G#'/ 8g#'/	.
4C/ 4E/	4A'/ 4a'/	.
8C#'/ 8E'/	8Gn'/ 8gn'/	.
=29	=29	=29
16D\LL	4f#/	.
16F#\ 16A\	.	.
16d\	.	.
16F#\ 16A\	.	.
16d\	8r	.
16F#\ 16A\JJ	.	.
16d\LL	4r	.
16F#\ 16A\	.	.
16d\	.	.
16F#\ 16A\	.	.
16d\	8r	.
16F#\ 16A\JJ	.	.
=30	=30	=30
16D\LL	[4.cc\	p
16F#\ 16A\	.	.
16d\	.	.
16F#\ 16A\	.	.
16d\	.	.
16F#\ 16A\JJ	.	.
16C\LL	(8cc/L]	.
16F#\ 16A\	.	.
16d\	8a/	.
16F#\ 16A\	.	.
16d\	8f#/J)	.
16F#\ 16A\JJ	.	.
=31	=31	=31
16BB\LL	(4dd\	.
16G\ 16B\	.	.
16d\	.	.
16G\ 16B\	.	.
16d\	16b\LL	.
16G\ 16B\JJ	16g\JJ)	.
16d\LL	(4dd\	.
16G\ 16B\	.	.
16d\	.	.
16G\ 16B\	.	.
16d\	16b\LL	.
16G\ 16B\JJ	16g\JJ)	.
=32	=32	=32
16D\LL	[4.cc\	.
16F#\ 16A\	.	.
16d\	.	.
16F#\ 16A\	.	.
16d\	.	.
16F#\ 16A\JJ	.	.
16C\LL	(8cc/L]	.
16F#\ 16A\	.	.
16d\	8a/	.
16F#\ 16A\	.	.
16d\	8f#/J)	.
16F#\ 16A\JJ	.	.
=33	=33	=33
16BB\LL	(4dd\	.
16G\ 16B\	.	.
16d\	.	.
16G\ 16B\	.	.
16d\	16b\LL	.
16G\ 16B\JJ	16g\JJ)	.
16d\LL	(4dd\	.
16G\ 16B\	.	.
16d\	.	.
16G\ 16B\	.	.
16d\	16b\LL	.
16G\ 16B\JJ	16g\JJ)	.
=34	=34	=34
16D\LL	[4.cc\	.
16F#\ 16A\	.	.
16d\	.	.
16F#\ 16A\	.	.
16d\	.	.
16F#\ 16A\JJ	.	.
16C\LL	(8cc/L]	.
16F#\ 16A\	.	.
16d\	8a/	.
16F#\ 16A\	.	.
16d\	8f#/J)	.
16F#\ 16A\JJ	.	.
=35	=35	=35
4BB/	8dd/L	.
.	8b/	.
8F#\	8f#/J	.
8G\L	8g/L	.
8B\	8b/	.
8D#\J	8d#/J	.
=36	=36	=36
8E\L	8e/L	.
8G\	8g/	.
8BB\J	8B/J	.
8C/L	8c/L	.
8E/	8e/	.
8GG#/J	8G#/J	.
=37	=37	=37
8AA/L	8A/L	.
8C/	8c/	.
8BB/J	8B/J	.
8AA/L	8A/L	.
8BB/	8B/	.
8C/J	8c/J	.
=38	=38	=38
*^	*	*
4.r	8D\L	8d/L	.
.	8C#\	8c#/	.
.	8D\J	8d/J	.
8D/L	8DD\L	4.r	.
8E/	8EE\	.	.
8F#/J	8FF#\J	.	.
*v	*v	*	*
=39	=39	=39
4GG/	16r	.
.	16G/LL	.
.	16B/	.
.	16d/	.
8r	16f#/	.
.	16g/JJ	.
4r	16b\LL	.
.	16dd\	.
.	16ff#\	.
.	16gg\	.
8r	16aa\	.
.	16bb\JJ	.
=40	=40	=40
16D\LL	[4.ccc\	.
16F#\ 16A\	.	.
16d\	.	.
16F#\ 16A\	.	.
16d\	.	.
16F#\ 16A\JJ	.	.
16C\LL	8ccc\L]	.
16F#\ 16A\	.	.
16d\	8aa\	.
16F#\ 16A\	.	.
16d\	8ff#\J	.
16F#\ 16A\JJ	.	.
=41	=41	=41
16BB\LL	(4ddd\	.
16G\ 16B\	.	.
16d\	.	.
16G\ 16B\	.	.
16d\	16bb\LL	.
16G\ 16B\JJ	16gg\JJ)	.
16d\LL	(4ddd\	.
16G\ 16B\	.	.
16d\	.	.
16G\ 16B\	.	.
16d\	16bb\LL	.
16G\ 16B\JJ	16gg\JJ)	.
=42	=42	=42
16D\LL	[4.ccc\	.
16F#\ 16A\	.	.
16d\	.	.
16F#\ 16A\	.	.
16d\	.	.
16F#\ 16A\JJ	.	.
16C\LL	(8ccc\L]	.
16F#\ 16A\	.	.
16d\	8aa\	.
16F#\ 16A\	.	.
16d\	8ff#\J)	.
16F#\ 16A\JJ	.	.
=43	=43	=43
16BB-\LL	(4ddd\	.
16G\ 16B-\	.	.
16d\	.	.
16G\ 16B-\	.	.
16d\	16bb-\LL	.
16G\ 16B-\JJ	16gg\JJ)	.
16d\LL	(4ddd\	.
16G\ 16B-\	.	.
16d\	.	.
16G\ 16B-\	.	.
16d\	16bb-\LL	.
16G\ 16B-\JJ	16gg\JJ)	.
=44	=44	=44
16D\LL	[4.ccc\	.
16F#\ 16A\	.	.
16d\	.	.
16F#\ 16A\	.	.
16e\	.	.
16F#\ 16A\JJ	.	.
16C\LL	8ccc\L]	.
16F#\ 16A\	.	.
16d\	8aa\	.
16F#\ 16A\	.	.
16d\	8ff#\J	.
16F#\ 16A\JJ	.	.
=45	=45	=45
*	*^	*
4BB-/	8ddd/L	4r	.
.	8bb-/	.	.
8r	8ff#/J	8f#\	.
4.r	8gg/L	8g\L	.
.	8bb-/	8b-\	.
.	8dd/J	8d\J	.
=46	=46	=46	=46
2.r	8ee-/L	8e-\L	.
.	8gg/	8g\	.
.	8bn/J	8Bn\J	.
.	8cc/L	8c\L	.
.	8ee-/	8e-\	.
.	8g/J	8G\J	.
=47	=47	=47	=47
2.r	8a-/L	4A-\	.
.	8ccc/	.	.
.	8een/J	8en\	.
.	8ffn/L	8fn\L	.
.	8aa-/	8a-\	.
.	8cc#/J	8c#\J	.
=48	=48	=48	=48
4.r	8dd/L	8d\L	.
.	8ff/	8f\	.
.	8an/J	8An\J	.
8B-\L	8b-/L	4.r	.
8d\	8dd/	.	.
8F#\J	8f#/J	.	.
=49	=49	=49	=49
2.r	8g/L	4G\	.
.	8bb-/	.	.
.	8dd/J	8d\	.
.	8ee-/L	8e-\L	.
.	8gg/	8g\	.
.	8bn/J	8Bn\J	.
=50	=50	=50	=50
4.r	8cc/L	8c\L	.
.	8ee-/	8e-\	.
.	8g/J	8G\J	.
8A-\L	8a-/L	4.r	.
8c\	8cc/	.	.
8En\J	8en/J	.	.
*	*v	*v	*
=51	=51	=51
8F\L	8f/L	.
8A-\	8a-/	.
8C#\J	8c#/J	.
8D\L	8d/L	.
8F\	8f/	.
8AA#\J	8A#/J	f
=52	=52	=52
*^	*	*
8B/L	8BB\L	2.r	.
8d/	8D\	.	.
8F#/J	8FF#\J	.	.
8G/L	8GG\L	.	.
8B/	8BB\	.	.
8D/J	8DD\J	.	.
=53	=53	=53	=53
8E-/L	8EE-\L	2.r	.
8G/	8GG\	.	.
8BB/J	8BBB\J	.	.
8C/L	8CC\L	.	.
8E-/	8EE-\	.	.
8GG/J	8GGG\J	.	.
=54	=54	=54	=54
8AA-/L	8AAA-\L	2.r	.
8C/	8CC\	.	.
8GG/J	8GGG\J	.	.
8AA-/L	8AAA-\L	.	.
8C/	8CC\	.	.
8FF#/J	8FFF#\J	.	.
=55	=55	=55	=55
8GG/L	[2.GGG\	4.r	p
8BB/	.	.	.
8D/J	.	.	.
4.FFn/	.	8G/L	.
.	.	8A/	.
.	.	8B/J	.
=56	=56	=56	=56
4.EE-/	2.GGG\]	8c/L	.
.	.	8G/	.
.	.	8d/J	.
4.CC/	.	8e-/L	.
.	.	8G/	.
.	.	8f#/J	.
=57	=57	=57	=57
[2.G/	8GGG\L	(4.g/	.
.	8BBB\	.	.
.	8DD\J	.	.
.	8GG\L	4.fn/	.
.	8AA\	.	.
.	8BB\J	.	.
=58	=58	=58	=58
2.G/]	8C\L	4.e-/	.
.	8GG\	.	.
.	8D\J	.	.
.	8E-\L	4.c/)	.
.	8GG\	.	.
.	8F#\J	.	.
=59	=59	=59	=59
(4.G/	[2.GG\	8r	.
.	.	8B/L	.
.	.	8d/J	.
4.Fn/	.	8g/L	.
.	.	8a/	.
.	.	8b/J	.
=60	=60	=60	=60
4.E-/	2.GG\]	8cc\L	.
.	.	8g\	.
.	.	8dd\J	.
4.C/)	.	8ee-\L	.
.	.	8g\	.
.	.	8ff#\J	.
*v	*v	*	*
=61	=61	=61
*	*^	*
8GG/L	(4.gg/	[2.g\	.
8BB/	.	.	.
8D/J	.	.	.
8G\L	4.ffn/	.	.
8A\	.	.	.
8B\J	.	.	.
=62	=62	=62	=62
8c\L	4.ee-/	2.g\]	.
8G\	.	.	.
8d\J	.	.	.
8e-\L	4.cc/)	.	.
8G\	.	.	.
8f#\J	.	.	.
=63	=63	=63	=63
4r	(8b/L	4g\	.
.	8f#/)	.	.
8r	8g'/J	8r	.
4r	8a'/L	4.r	.
.	8b'/	.	.
8r	8cc'/J	.	.
*	*v	*v	*
=64	=64	=64
2.r	8dd'\L	.
.	8ee'\	.
.	8ff#'\J	.
.	8gg'\L	.
.	8aa'\	.
.	8bb'\J	.
=65	=65	=65
(8GG/L	(8b\L	.
8FF#/)	8a\)	.
8GG'/J	8b'\J	.
8AA'/L	8cc'\L	.
8BB/	8dd'\	.
8C'/J	8ee'\J	.
=66	=66	=66
8D'\L	8ff#'\L	.
8E'\	8gg'\	.
8F#'\J	8aa'\J	.
8G'\L	8bb'\L	.
8A'\	8ccc'\	.
8B'\J	8ddd'\J	.
=67	=67	=67
8G'\L	8r	.
8F#'\	8r	.
8G'\J	8fff'\	pp
8A'\L	8eee'\L	.
8B'\	8ddd'\	.
8c'\J	8ccc'\J	.
*clefG2	*	*
=68	=68	=68
8d'/L	8bb'\L	.
8e'/	8aa'\	.
8fn'/J	8gg'\J	.
8g'/L	8ffn'\L	.
8a'/	8ee'\	.
8b'/J	8dd'\J	.
*clefF4	*	*
=69	=69	=69
4C\ 4c\	8e'/ 8g'/ 8cc'/L	p
.	8d'/ 8f'/ 8b'/	.
8r	8e'/ 8g'/ 8cc'/J	.
4r	8f'\ 8a'\ 8dd'\L	.
.	8g'\ 8b'\ 8ee'\	.
8r	8a'\ 8cc'\ 8ff'\J	.
=70	=70	=70
4r	8b'\ 8dd'\ 8gg'\L	.
.	8cc'\ 8ee'\ 8aa'\	.
8r	8dd'\ 8ff'\ 8bb'\J	.
4r	8ee'\ 8gg'\ 8ccc'\L	.
.	8ff'\ 8aa'\ 8ddd'\	.
*clefG2	*	*
8gg\	8ccc'\ 8eee'\J	.
=71	=71	=71
4aa'\	4ccc'\ 4fff'\	.
8gg'\	8ccc'\ 8eee'\	.
4aa'\	4ccc'\ 4fff'\	.
8gg'\	8ccc'\ 8eee'\	.
=72	=72	=72
4ff#'\	4ccc'\ 4ddd'\	.
8r	8r	.
4r	4r	.
8r	8d/	.
*clefF4	*	*
=73	=73	=73
4GGG/ 4GG/	8B'/ 8d'/ 8g'/L	.
.	8A'/ 8c'/ 8f#'/	.
8r	8B'/ 8d'/ 8g'/J	.
4r	8c'/ 8e'/ 8a'/L	.
.	8d'/ 8fn'/ 8b'/	.
8r	8e'/ 8g'/ 8cc'/J	.
=74	=74	=74
4r	8f'\ 8a'\ 8dd'\L	.
.	8g'\ 8b'\ 8ee'\	.
8r	8a'\ 8cc'\ 8ff'\J	.
4r	8b'\ 8dd'\ 8gg'\L	.
.	8cc'\ 8ee'\ 8aa'\	.
*clefG2	*	*
8g'/	8dd'\ 8ff'\ 8bb'\J	.
=75	=75	=75
4c'/ 4cc'/	4ee'\ 4gg'\ 4ccc'\	.
8g'/ 8b'/	8ff'\ 8gg'\ 8ddd'\	.
4c/ 4cc/	4ee'\ 4gg'\ 4ccc'\	.
8g'/ 8b'/	8ff'\ 8gg'\ 8ddd'\	.
=76	=76	=76
4c'/ 4cc'/	4ee'\ 4gg'\ 4ccc'\	.
8r	8r	.
4r	4r	.
*clefF4	*	*
8GG'/	8r	f
=77	=77	=77
8CC'/ 8C'/L	[2.g\ [2.ee\ [2.gg\	f
8BBB'/ 8BB'/	.	.
8CC'/ 8C'/J	.	.
8DD'/ 8D'/L	.	.
8EE'/ 8E'/	.	.
8FF'/ 8F'/J	.	.
=78	=78	=78
8GG'\ 8G'\L	4.g\_ 4.ee\_ 4.gg\_	.
8AA'\ 8A'\	.	.
8BB'\ 8B'\J	.	.
8C'\ 8c'\L	8g\] 8ee\] 8gg\L]	.
8D'\ 8d'\	8g'\ 8dd'\ 8ff'\	.
8E'\ 8e'\J	8g'\ 8cc'\ 8ee'\J	.
=79	=79	=79
4F'\ 4f'\	4g'\ 4b'\ 4dd'\	.
8E'\ 8e'\	8g'\ 8cc'\ 8ee'\	.
4F'\ 4f'\	4g'\ 4b'\ 4dd'\	.
8E'\ 8e'\	8g'\ 8cc#'\ 8ee'\	.
=80	=80	=80
4D'\ 4d'\	4a'\ 4dd'\ 4ff'\	.
8r	8r	.
4r	4r	.
8AA'/	8r	ff
=81	=81	=81
8DD'/ 8D'/L	[2.a\ [2.ff\ [2.aa\	ff
8CC#'/ 8C#'/	.	.
8DD'/ 8D'/J	.	.
8EE'/ 8E'/L	.	.
8FF'/ 8F'/	.	.
8GG'/ 8G'/J	.	.
=82	=82	=82
8AA'\ 8A'\L	4.a\_ 4.ff\_ 4.aa\_	.
8BB'\ 8B'\	.	.
8C#'\ 8c#'\J	.	.
8D'\ 8d'\L	8a\] 8ff\] 8aa\L]	.
8E'\ 8e'\	8a'\ 8ee'\ 8gg'\	.
8F'\ 8f'\J	8a'\ 8dd'\ 8ff'\J	.
=83	=83	=83
4G'\ 4g'\	4a'\ 4cc#'\ 4ee'\	p
8F'\ 8f'\	8a'\ 8dd'\ 8ff'\	.
4G'\ 4g'\	4a'\ 4cc#'\ 4ee'\	.
8F#'\ 8f#'\	8a'\ 8dd#'\ 8ff#'\	.
=84	=84	=84
4E'\ 4e'\	4b'\ 4ee'\ 4gg'\	.
8r	8r	.
4r	4r	.
8BB'/	8r	f
=85	=85	=85
8EE'/ 8E'/L	[2.b\ [2.gg\ [2.bb\	f
8DD#'/ 8D#'/	.	.
8EE'/ 8E'/J	.	.
8FF#'/ 8F#'/L	.	.
8GG'/ 8G'/	.	.
8AA'/ 8A'/J	.	.
=86	=86	=86
8BB'\ 8B'\L	4.b\_ 4.gg\_ 4.bb\_	.
8C#'\ 8c#'\	.	.
8D#'\ 8d#'\J	.	.
8E'\ 8e'\L	8b\] 8gg\] 8bb\L]	.
8F#'\ 8f#'\	8b'\ 8ff#'\ 8aa'\	.
8G'\ 8g'\J	8b'\ 8ee'\ 8gg'\J	.
=87	=87	=87
*	*^	*
2.r	8r	8A\L	.
.	8dd#/ (8ff#/L	8a\ 8cc\	.
.	8ee/ 8gg/J)	8g\ 8b\J	.
.	8r	8F#\L	.
.	8ff#/ (8aa/L	8f#\ 8a\	.
.	8gg/ 8bb/J)	8e\ 8g\J	.
=88	=88	=88	=88
2.r	8r	8D#\L	.
.	8aa'/ 8ccc'/L	8d#\ 8f#\	.
.	8gg'/ 8bb'/J	8e\ 8g\J	.
.	8ff#'/ 8aa'/L	8f#\ 8a\L	.
.	8ee'/ 8gg'/	8g\ 8b\	.
.	8dd#/ 8ff#/J	8a\ 8cc\J	.
=89	=89	=89	=89
2.r	8r	8dn\L	.
.	8gg#/ (8bb/L	8dd\ 8ffn\	.
.	8aa/ 8ccc/J)	8cc\ 8ee\J	.
.	8r	8B\L	.
.	8bb/ (8ddd/L	8b\ 8dd\	.
.	8ccc/ 8eee/J)	8a\ 8cc\J	.
=90	=90	=90	=90
2.r	8r	8G#\L	.
.	8ddd'/ 8fff'/L	8g#'\ 8b'\	.
.	8ccc'/ 8eee'/J	8a'\ 8cc'\J	.
.	8bb'/ 8ddd'/L	8b'\ 8dd'\L	.
.	8aa'/ 8ccc'/	8cc'\ 8ee'\	.
.	8gg#'/ 8bb'/J	8dd'\ 8ff'\J	.
=91	=91	=91	=91
2.r	8r	8Gn\L	.
.	8cc#/ (8ee/L	8g\ 8b-\	.
.	8dd/ 8ff/J)	8f\ 8a\J	.
.	8r	8F\L	.
.	8ee/ (8gg/L	8e\ 8g\	.
.	8ff/ 8aa/J)	8d\ 8f\J	.
=92	=92	=92	=92
2.r	8r	8C#\L	.
.	8gg'/ 8bb-'/L	8c#'\ 8e'\	.
.	8ff'/ 8aa'/J	8d'\ 8f'\J	.
.	8ee'/ 8gg'/L	8e'\ 8g'\L	.
.	8dd'/ 8ff'/	8f'\ 8a'\	.
.	8cc#'/ 8ee'/J	8g'\ 8b-'\J	.
=93	=93	=93	=93
2.r	8r	8D\L	.
.	8ff'/ 8aa'/L	8d'\	.
.	8ee'/ 8gg'/J	8c#'\ 8e'\J	.
.	8dd'/ 8ff'/L	8d'\ 8f'\L	.
.	8cc#'/ 8ee'/	8e'\ 8g'\	.
.	8dd'/J	8f'\ 8a'\J	.
*	*v	*v	*
=94	=94	=94
8GG#'\L	8r	.
8G#'\ 8B'\	8ddd'\ 8fff'\L	.
8A'\ 8c'\J	8ccc'\ 8eee'\J	.
8B'\ 8d'\L	8bb'\ 8ddd'\L	.
8c'\ 8e'\	8aa'\ 8ccc'\	.
8d'\ 8f'\J	8gg#'\ 8bb'\J	.
=95	=95	=95
8AA'\L	8r	.
8A'\	8ccc'\ 8eee'\L	.
8G#'\ 8B'\J	8bb'\ 8ddd'\J	.
8A'\ 8c'\L	8aa'\ 8ccc'\L	.
8B'\ 8d'\	8gg#'\ 8bb'\	.
8c'\ 8e'\J	8aa'\J	.
=96	=96	=96
4D'\	8r	.
.	(8b\L	.
8d'\	8ddd\J)	.
4E'\	8r	.
.	(8g#\L	.
8e'\	8bb\J)	.
=97	=97	=97
4AA'/	8r	.
.	(8a\L	.
8A'\	8aa\J)	.
4FF'/	8r	.
.	(8f\L	.
8F'\	8ff\J)	.
=98	=98	=98
4DD'/	8r	.
.	8d/L	.
8D'\	8dd/J	.
4BBB'/	8r	.
.	(8B/L	.
8BB'/	8b/J)	.
=99	=99	=99
4GGG#'/	8r	.
.	8G#/L	.
8GG#'/	8g#/J	.
4AAA'/	8r	.
.	(8A/L	.
8AA'/	8a/J)	.
=100	=100	=100
*^	*	*
8r	4.DD#\	2.r	.
8D#/L	.	.	.
8d#/J	.	.	.
8r	4.EE\	.	.
8E/L	.	.	.
8e/J	.	.	.
=101	=101	=101	=101
8r	4.AAA\	2.r	.
8AA/L	.	.	.
8A/J	.	.	.
8r	4.BBB-\	.	.
8BB-/L	.	.	.
8B-/J	.	.	.
=102	=102	=102	=102
8r	4.BBBn\	2.r	.
8BBn/L	.	.	.
8Bn/J	.	.	.
8r	4.CC\	.	.
8C/L	.	.	.
8c/J	.	.	.
*v	*v	*	*
=103	=103	=103
[2.FFF/ [2.FF/	(4.A/ 4.c/ 4.f/	pp
.	4.c/ 4.f/ 4.a/	.
=104	=104	=104
2.FFF/] 2.FF/]	4.f/ 4.a/ 4.cc/	.
.	4.a/) 4.cc/ 4.ff/	.
=105	=105	=105
[2.CC/ [2.C/	(4.g/ 4.cc/ 4.ee/	.
.	4.f/ 4.b/ 4.dd/	.
=106	=106	=106
4.CC/] 4.C/]	4.e/ 4.g/ 4.cc/	.
(4CC/	4.c/) 4.g/ 4.b-/	.
16DD/LL	.	.
16EE/JJ)	.	.
=107	=107	=107
4.FFF/ 4.FF/	4.c/ 4.f/ (4.a/	.
4.GGG/ 4.GG/	4.B-/ 4.e/ 4.g/	.
=108	=108	=108
*^	*	*
4.A/	4.AAA\ 4.AA\	4.c/ 4.f/	.
4.G/	4.BBBn\ 4.BBn\	4.d/ 4.g/)	.
=109	=109	=109	=109
4.G/	4.CC\ 4.C\	4.c/ (4.e/	.
4.B/	4.GG\ 4.F\	4.d/	.
*v	*v	*	*
=110	=110	=110
(8CC\L	4E/ 4G/ 4c/)	.
8EE\	.	.
8GG\J	8r	.
8C\L	4r	.
8D\	.	.
8E\J)	8r	.
=111	=111	=111
4.FF\ (4.F\	8r	.
.	(8aa\L	.
.	8ccc\J)	.
4.AA\ 4.A\	8r	.
.	(8ff\L	.
.	8aa\J)	.
=112	=112	=112
4.C\ 4.c\	8r	.
.	8gg#\L	.
.	8aa\J	.
4.F\ 4.f\)	8r	.
.	8cc\L	.
.	8aa\J	.
=113	=113	=113
4.E\ (4.e\	8r	.
.	(8aa\L	.
.	8ggn\J)	.
4.D\ 4.d\	8r	.
.	(8ff\L	.
.	8bb\J)	.
=114	=114	=114
4.C\ 4.c\	8r	.
.	8ee\L	.
.	8ccc\J	.
4.BB-\ 4.B-\)	8r	.
.	8ee\L	.
.	8ddd\J	.
=115	=115	=115
4.AA\ (4.A\	8r	.
.	(8ddd\L	.
.	8ccc\J)	.
4.GG\ 4.G\	8r	.
.	(8bb-\L	.
.	8eee\J)	.
=116	=116	=116
4.FF\ 4.F\	8r	.
.	8aa\L	.
.	8fff\J	.
4.BB-\ 4.B-\)	8r	.
.	8b-\L	.
.	8ddd\J	.
=117	=117	=117
4.C\ (4.c\	8r	.
.	(8a\L	.
.	8ccc\J)	.
4.CC/ 4.C/)	8r	.
.	(8b-\L	.
.	8ee\J)	.
=118	=118	=118
(8FF/L	4a\ 4ff\	.
8AA/	.	.
8C/J	8r	.
8F\L	4r	.
8G\	.	.
8A\J)	8r	.
=119	=119	=119
*^	*	*
4r	[2.C\	4r	.
[8G/ [8B-/	.	8r	.
(4G/] 4B-/]	.	(4b-/	.
8F/) 8A/	.	8a/)	.
=120	=120	=120	=120
.	.	(aq/	.
4.E/ 4.G/	2.C\]	8g'/L)	.
.	.	8f#'/	.
.	.	8g'/J	.
.	.	(b-q/	.
4.F/ 4.A/	.	8a'/L)	.
.	.	8g'/	.
.	.	8a'/J	.
=121	=121	=121	=121
4G/ 4B-/	[2.C\	4b-/	.
[8B-/ [8d/	.	8r	.
(4B-/] 4d/]	.	(4dd\	.
8A/) 8c/	.	8cc\)	.
=122	=122	=122	=122
4.G/ 4.B-/	2.C\]	8b-'\L	.
.	.	8cc'\	.
.	.	8b-'\J	.
4.A/	.	8a'\L	.
.	.	8b-'\	.
.	.	8a'\J	.
=123	=123	=123	=123
4E/ 4G/	[2.C\	4g/	.
[8G/ [8B-/	.	8r	.
(4G/] 4B-/]	.	(4b-/	.
8F/) 8A/	.	8a/)	.
=124	=124	=124	=124
.	.	(aq/	.
4.E/ 4.G/	2.C\]	8g'/L)	.
.	.	8f#'/	.
.	.	8g'/J	.
.	.	bq/	.
4.F/ 4.A/	.	8a'/L	.
.	.	8g'/	.
.	.	8a'/J	.
=125	=125	=125	=125
4G/ 4B-/	2.C\	4b-\	.
[8B-/ [8d/	.	8r	.
(4B-/] 4d/]	.	(4dd\	.
8A/) 8c/	.	8cc\)	.
=126	=126	=126	=126
4.G/ 4.B-/	2.C\	8b-'\L	.
.	.	8dd'\	.
.	.	8cc'\J	.
4.E/ 4.G/	.	8b-'\L	.
.	.	8a'\	.
.	.	8g'\J	.
*v	*v	*	*
=127	=127	=127
8r	4.A/ 4.c/ (4.f/	p
8F\L	.	.
8A\J	.	.
8r	4.c/ 4.f/ 4.a/	.
8C\L	.	.
8F\J	.	.
=128	=128	=128
8r	4.f/ 4.a/ 4.cc/	.
(8AA/L	.	.
8C/J)	.	.
8r	4.a\ 4.cc\ 4.ff\)	.
(8FF/L	.	.
8AA/J)	.	.
=129	=129	=129
8r	(4.g/ 4.cc/ 4.ee/	.
8BBn/L	.	.
8C/J	.	.
8r	4.f/ 4.g/ 4.dd/	.
8A#\L	.	.
8Bn\J	.	.
=130	=130	=130
8r	4.e/ 4.g/ 4.cc/	.
(8B\L	.	.
8c\J)	.	.
8r	4.c/) 4.g/ 4.b-/	.
(8D#\L	.	.
8E\J)	.	.
=131	=131	=131
8r	(4.c/ 4.f/ 4.a/	.
8E\L	.	.
8F\J	.	.
8r	4.B-/ 4.e/ 4.g/	.
8FF#/L	.	.
8GG/J	.	.
=132	=132	=132
8r	4.A/ 4.c/ 4.f/	.
(8GG#/L	.	.
8AA/J)	.	.
8r	4.G/) 4.d/ 4.g/	.
(8AA/L	.	.
8BB-/J)	.	.
=133	=133	=133
*^	*	*
4.F/ 4.A/	8r	(4.c/	.
.	8BBn\L	.	.
.	8C\J	.	.
4.G/ 4.B-/	8r	4.c/ 4.e/	.
.	8BBBn/L	.	.
.	8CC/J	.	.
*v	*v	*	*
=134	=134	=134
(8FF/L	4A/ 4c/ 4f/)	.
8AA/	.	.
8C/J	8r	.
8F\L	4r	.
8G\	.	.
8A\J)	8r	.
=135	=135	=135
*^	*	*
4r	[2.C\	4r	.
[8G/ [8B-/	.	8r	.
(4G/] 4B-/]	.	(4b-/	.
8F/) 8A/	.	8a/)	.
=136	=136	=136	=136
.	.	(aq/	.
4.E/ 4.G/	2.C\]	8g'/L)	.
.	.	8f#'/	.
.	.	8g'/J	.
.	.	bq/	.
4.F/ 4.A/	.	8a'/L	.
.	.	8g'/	.
.	.	8a'/J	.
=137	=137	=137	=137
4G/ 4B-/	[2.C\	4b-\	.
[8B-/ [8d/	.	8r	.
(4B-/] 4d/]	.	(4dd\	.
8A/) 8c/	.	8cc\)	.
=138	=138	=138	=138
4.G/ 4.B-/	2.C\]	8b-'/L	.
.	.	8cc'/	.
.	.	8b-'/J	.
4.F/ 4.A/	.	8a'/L	.
.	.	8b-'/	.
.	.	8a'/J	.
=139	=139	=139	=139
4E/ 4G/	[2.C\	4g/	.
[8G/ [8B-/	.	8r	.
4G/] 4B-/]	.	(4b-/	.
8F/ 8A/	.	8a/)	.
=140	=140	=140	=140
.	.	(aq/	.
4.E/ 4.G/	2.C\]	8g'/L)	.
.	.	8f#'/	.
.	.	8g'/J	.
.	.	(bq/	.
4.F/ 4.A/	.	8a'/L)	.
.	.	8g'/	.
.	.	8a'/J	.
=141	=141	=141	=141
4G/ 4B-/	[2.C\	4b-\	.
[8B-/ [8d/	.	8r	.
(4B-/] 4d/]	.	(4dd\	.
8A/) 8c/	.	8cc\)	.
=142	=142	=142	=142
4.G/ 4.B-/	2.C\]	8b-'\L	.
.	.	8dd'\	.
.	.	8cc'\J	.
4.E/ 4.G/	.	8b-'\L	.
.	.	8a'\	.
.	.	8g'\J	.
*v	*v	*	*
=143	=143	=143
8r	4.A/ 4.c/ (4.f/	p
8F\L	.	.
8A\J	.	.
8r	4.c/ 4.f/ 4.a/	.
8C\L	.	.
8F\J	.	.
=144	=144	=144
8r	4.f/ 4.a/ 4.cc/	.
8AA/L	.	.
8C/J	.	.
8r	4.a\ 4.cc\ 4.ff\	.
8FF/L	.	.
8AA/J	.	.
=145	=145	=145
8r	4.g\ 4.cc\ 4.ee\	.
8BBn/L	.	.
8C/J	.	.
8r	4.f/ 4.g/ 4.dd/	.
8A#\L	.	.
8B\J	.	.
=146	=146	=146
8r	4.e/ 4.g/ 4.cc/	.
(8B\L	.	.
8c\J)	.	.
8r	4.c/ 4.g/ 4.b-/)	.
(8D#\L	.	.
8E\J)	.	.
=147	=147	=147
4.FF\ (4.F\	8c/ 8f/ 8a-/	.
.	(8aa-\L	.
.	8ccc\J)	.
4.AA-\ 4.A-\	8r	.
.	(8ff\L	.
.	8aa-\J)	.
=148	=148	=148
4.C\ 4.c\	8r	.
.	8cc\L	.
.	8ff\J	.
4.F\ 4.f\)	8r	.
.	8a-\L	.
.	8aa-\J	.
=149	=149	=149
4.E-\ (4.e-\	8r	.
.	(8aa-\L	.
.	8gg\J)	.
4.D-\ 4.d-\	8r	.
.	(8g\L	.
.	8ff\J)	.
=150	=150	=150
4.C\ 4.c\	8r	.
.	8ff\L	.
.	8ee-\J	.
4.BB-\ 4.B-\)	8r	.
.	8dd-\L	.
.	8ddd-\J	.
=151	=151	=151
(4.AA-\ 4.A-\	8r	.
.	(8ccc\L	.
.	8eee-\J)	.
4.C\ 4.c\	8r	.
.	(8aa-\L	.
.	8ccc\J)	.
=152	=152	=152
*	*^	*
4.E-\	8r	4.e-\	.
.	8ee-/L	.	.
.	8aa-/J	.	.
4.A-\)	8r	4.a-\	.
.	8cc/L	.	.
.	8ccc/J	.	.
=153	=153	=153	=153
(4.G\	8r	4.g\	.
.	(8ccc/L	.	.
.	8bbn/J)	.	.
4.F\	8r	4.f\	.
.	8bn/L	.	.
.	8aa-/J	.	.
=154	=154	=154	=154
4.E-\	8r	4.e-\	.
.	8aa-/L	.	.
.	8gg/J	.	.
4.D\)	8r	4.d\	.
.	8ff/L	.	.
.	8fff/J	.	.
*	*v	*v	*
=155	=155	=155
8r	4.g\ 4.cc\ (4.ee-\	.
8B\L	.	.
8c\J	.	.
8r	4.cc\ 4.ee-\ 4.gg\	.
8B\L	.	.
8c\J	.	.
=156	=156	=156
8r	4.ee-\ 4.gg\ 4.ccc\)	.
8B\L	.	.
8c\J	.	.
8r	4.cc\ 4.aa\ (4.ccc\	.
8F#\L	.	.
8e-\J	.	.
=157	=157	=157
8r	4.b\ 4.gg\ 4.bb\	.
8e-\L	.	.
8d\J	.	.
8r	4.a\ 4.ff#\ 4.aa\	.
8D\L	.	.
8c\J	.	.
=158	=158	=158
8r	4.g\ 4.gg\)	.
8c\L	.	.
8B\J	.	.
8r	4.b-\ 4.gg\ (4.bb-\	.
8En\L	.	.
8d-\J	.	.
=159	=159	=159
8r	4.a-\ 4.ff\ 4.aa-\	.
8d-\L	.	.
8c\J	.	.
8r	4.g\ 4.ee\ 4.gg\	.
8C\L	.	.
8B-\J	.	.
=160	=160	=160
8r	4.f\ 4.ff\)	.
8B-\L	.	.
8A-\J	.	.
8r	4.g\ 4.dd\ (4.gg\	.
8BBn\L	.	.
8G\J	.	.
=161	=161	=161
8r	4.g\ 4.cc\ 4.ee-\	.
8C\L	.	.
8G\J	.	.
8r	4.f/ 4.b/ 4.dd/	.
8D\L	.	.
8G\J	.	.
=162	=162	=162
8r	4.e-/ 4.g/ 4.cc/)	.
(8E-/L	.	.
8C/J)	.	.
8r	4.d/ 4.a/ 4.dd/	.
(8EE#/L	.	.
8FF#/J)	.	.
=163	=163	=163
8r	4.d/ 4.g/ 4.b/	.
(8FF#/L	.	.
8GG/J)	.	.
8r	4.c/ 4.f#/ 4.a/	.
(8GGG/L	.	.
8GG/J)	.	.
=164	=164	=164
8r	4.B/ 4.d/ 4.g/	.
(8GGG\L	.	.
8GG\J)	.	.
8r	4.F#/ 4.c/ 4.e-/	.
(8GGG\L	.	.
8GG\J)	.	.
=165	=165	=165
*^	*	*
4.G/ 4.B/	8r	4.d/	.
.	(8GGG\L	.	.
.	8GG\J)	.	.
4.E-/ 4.F#/	8r	4.c/	pp
.	(8GGG\L	.	.
.	8GG\J)	.	.
=166	=166	=166	=166
4.D/ 4.G/ 4.B/	8r	2.r	.
.	(8GGG\L	.	.
.	8GG\J)	.	.
4.C/ 4.F#/ 4.A/	8r	.	.
.	(8GGG\L	.	.
.	8GG\J)	.	.
=167	=167	=167	=167
4BB/ 4G/	4GGG\	4r	.
[8GG/	8r	8r	.
4.GG/_	4.r	(4d/	.
.	.	8c/)	.
*v	*v	*	*
=168	=168	=168
.	(cq/	.
2.GG/]	8B'/L)	.
.	8A'/	.
.	8B'/J	.
.	dq/	.
.	8c'/L	.
.	8B'/	.
.	8c'/J	.
=169	=169	=169
4GGG/	4d/	.
[8GG/	8r	.
4.GG/_	(4d/ 4f/	.
.	8c/) 8e/	.
=170	=170	=170
.	(cq/	.
2.GG/]	8B'/) 8d'/L	.
.	8A'/ 8c'/	.
.	8B'/ 8d'/J	.
.	dq/	.
.	8c'/ 8e'/L	.
.	8B'/ 8d'/	.
.	8c'/ 8e'/J	.
=171	=171	=171
*^	*	*
4.r	4GGG/	4d/ 4f/	.
.	[8GG\	8r	.
8r	4.GG\_	(4f/ 4a/	.
8BB/L	.	.	.
8C/J	.	8e/) 8g/	.
=172	=172	=172	=172
4.D/	2.GG\_	8d'/ 8f'/L	.
.	.	8e'/ 8g'/	.
.	.	8d'/ 8f'/J	.
4.E/	.	8c'/ 8e'/L	.
.	.	8d'/ 8f'/	.
.	.	8c'/ 8e'/J	.
=173	=173	=173	=173
4F/	4GG\]	4B/ 4d/	.
8r	[8GG\	8r	.
8r	4.GG\_	(4f/ 4a/	.
8BB/L	.	.	.
8C/J	.	8e/) 8g/	.
=174	=174	=174	=174
4.D/	2.GG\_	8d'/ 8f'/L	.
.	.	8e'/ 8g'/	.
.	.	8d'/ 8f'/J	.
4.E/	.	8c'/ 8e'/L	.
.	.	8d'/ 8f'/	.
.	.	8c'/ 8e'/J	.
=175	=175	=175	=175
4F/	4GG\]	8B'/ 8d'/L	.
.	.	(8c#/	.
8r	8r	8d/J)	.
4r	4r	8e'/L	.
.	.	8f'/	.
8r	8r	8g'/J	.
*v	*v	*	*
=176	=176	=176
2.r	8a'\L	.
.	8b'\	.
.	8cc'\J	.
.	8dd'\L	.
.	8ee-'\	.
.	8een'\J	.
=177	=177	=177
2.r	8ff'\L	.
.	(8cc#\	.
.	8dd\J)	.
.	8ee'\L	.
.	8ff'\	.
.	8gg'\J	.
=178	=178	=178
2.r	8aa'\L	.
.	8bb'\	.
.	8ccc'\J	.
.	8ddd'\L	.
.	8eee-'\	.
.	8eeen'\J	.
=179	=179	=179
8GG/L	4fff'\	pp
8FF#'/	.	.
8GG'/J	8r	.
8AA'/L	4r	.
8BB'/	.	.
8C'/J	8r	.
=180	=180	=180
8D'\L	2.r	.
8E'\	.	.
8Fn'\J	.	.
8G'\L	.	.
8A'\	.	.
8B'\J	.	.
=181	=181	=181
4c'\	8e'/ 8g'/ 8cc'/L	p
.	8d'/ 8f'/ 8b'/	.
8r	8e'/ 8g'/ 8cc'/J	.
4r	8f'/ 8a'/ 8dd'/L	.
.	8g'/ 8b'/ 8ee'/	.
8r	8a'/ 8cc'/ 8ff'/J	.
=182	=182	=182
4r	8b'\ 8dd'\ 8gg'\L	.
.	8cc'\ 8ee'\ 8aa'\	.
8r	8dd'\ 8ff'\ 8bb'\J	.
4r	8ee'\ 8gg'\ 8ccc'\L	.
.	8ff'\ 8aa'\ 8ddd'\	.
*clefG2	*	*
8gg'\	8ccc'\ 8eee'\J	.
=183	=183	=183
4aa'\	4ccc\ 4fff\	.
8gg'\	8ccc'\ 8eee'\	.
4aa'\	4ccc'\ 4fff'\	.
8gg'\	8ccc'\ 8eee'\	.
=184	=184	=184
4ff#'\	4ccc'\ 4ddd'\	.
8r	8r	.
4r	4r	.
8r	8d/	.
*clefF4	*	*
=185	=185	=185
4GGG/ 4GG/	8B'/ 8d'/ 8g'/L	.
.	8A'/ 8c'/ 8f#'/	.
8r	8B'/ 8d'/ 8g'/J	.
4r	8c'/ 8e'/ 8a'/L	.
.	8d'/ 8fn'/ 8b'/	.
8r	8e'/ 8g'/ 8cc'/J	.
=186	=186	=186
4r	8f'\ 8a'\ 8dd'\L	.
.	8g'\ 8b'\ 8ee'\	.
8r	8a'\ 8cc'\ 8ff'\J	.
4r	8b'\ 8dd'\ 8gg'\L	.
.	8cc'\ 8ee'\ 8aa'\	.
*clefG2	*	*
8g'/	8dd\ 8ff\ 8bb\J	.
=187	=187	=187
4c'/ 4cc'/	4ee'\ 4gg'\ 4ccc'\	.
8g'/ 8b'/	8ff'\ 8gg'\ 8ddd'\	.
4c'/ 4cc'/	4ee'\ 4gg'\ 4ccc'\	.
8g'/ 8b'/	8ff'\ 8gg'\ 8ddd'\	.
=188	=188	=188
4c'/ 4cc'/	4ee'\ 4gg'\ 4ccc'\	.
8r	8r	.
4r	4r	.
*clefF4	*	*
8GG/	8r	f
=189	=189	=189
8CC'/ 8C'/L	[2.g\ [2.ee\ [2.gg\	f
8BBB'/ 8BB'/	.	.
8CC'/ 8C'/J	.	.
8DD'/ 8D'/L	.	.
8EE'/ 8E'/	.	.
8FF'/ 8F'/J	.	.
=190	=190	=190
8GG'\ 8G'\L	4.g\_ 4.ee\_ 4.gg\_	.
8AA'\ 8A'\	.	.
8BB'\ 8B'\J	.	.
8C'\ 8c'\L	8g\] 8ee\] 8gg\L]	.
8D'\ 8d'\	8g'\ 8dd'\ 8ff'\	.
8E'\ 8e'\J	8g'\ 8cc'\ 8ee'\J	.
=191	=191	=191
4F'\ 4f'\	4g'\ 4b'\ 4dd'\	.
8E'\ 8e'\	8g'\ 8cc'\ 8ee'\	.
4F'\ 4f'\	4g'\ 4b'\ 4dd'\	.
8E'\ 8e'\	8g'\ 8cc'\ 8ee'\	.
=192	=192	=192
4F'\ 4f'\	4g'\ 4b'\ 4dd'\	.
8r	8r	.
4r	4r	.
8r	8g/	.
=193	=193	=193
8GGG'/ 8GG'/L	[2.g\ [2.dd\ [2.ff\	.
8FFF#'/ 8FF#'/	.	.
8GGG'/ 8GG'/J	.	.
8AAA'/ 8AA'/L	.	.
8BBB'/ 8BB'/	.	.
8CC'/ 8C'/J	.	.
=194	=194	=194
8DD'/ 8D'/L	4.g\_ 4.dd\_ 4.ff\_	.
8EE'/ 8E'/	.	.
8FF'/ 8F'/J	.	.
8GG'/ 8G'/L	8g/] 8dd/] 8ff/L]	.
8AA'/ 8A'/	8g'/ 8cc'/ 8ee'/	.
8BB'/ 8B'/J	8f'/ 8g'/ 8dd'/J	.
=195	=195	=195
4C'\ 4c'\	4e'/ 4g'/ 4cc'/	.
8G'\ 8B'\	8f'/ 8g'/ 8dd'/	.
4C'\ 4c'\	4e'/ 4g'/ 4cc'/	.
8G'\ 8B'\	8f'/ 8g'/ 8dd'/	.
=196	=196	=196
4C'\ 4c'\	4e'/ 4g'/ 4cc'/	.
8r	8r	.
4r	(16aa\LL	.
.	16gg\	.
.	16ff\	.
.	16ee\	.
8r	16dd\	.
.	16cc\JJ)	.
=197	=197	=197
*	*^	*
[2.G\	16b/LL	4.d\ 4.f\	.
.	(16cc/	.	.
.	16b/	.	.
.	16a/	.	.
.	16b/	.	.
.	16g/JJ)	.	.
.	(16cc/LL	4.c\ 4.e\	.
.	16dd/	.	.
.	16cc/	.	.
.	16b/	.	.
.	16cc/	.	.
.	16g/JJ)	.	.
=198	=198	=198	=198
4G\]	(16dd/LL	4B\ 4d\	.
.	16ee/	.	.
.	16dd/	.	.
.	16cc#/	.	.
8r	16dd/	8r	.
.	16g/JJ	.	.
4r	16gg/LL)	4.r	.
.	(16ff/	.	.
.	16ee/	.	.
.	16dd/	.	.
8r	16ccn/	.	.
.	16b/JJ)	.	.
=199	=199	=199	=199
[2.G\	(16cc/LL	4.e\ 4.g\	.
.	16dd/	.	.
.	16cc/	.	.
.	16b/	.	.
.	16cc/	.	.
.	16g/JJ)	.	.
.	16dd/LL	4.d\ 4.f\	.
.	(16ee/	.	.
.	16dd/	.	.
.	16cc#/	.	.
.	16dd/	.	.
.	16g/JJ)	.	.
=200	=200	=200	=200
4G\]	(16ee/LL	4c\ 4e\	.
.	16ff/	.	.
.	16ee/	.	.
.	16dd#/	.	.
8r	16ee/	8r	.
.	16cc/JJ)	.	.
4r	16aa/LL	4.r	.
.	(16gg/	.	.
.	16ff/	.	.
.	16ee/	.	.
8r	16ddn/	.	.
.	16cc/JJ)	.	.
=201	=201	=201	=201
[2.G\	16ff#/LL	(4.c\ 4.a\	.
.	16gg/	.	.
.	16ff#/	.	.
.	16ee/	.	.
.	16ff#/	.	.
.	16dd/JJ	.	.
.	(16gg/LL	4.B\) 4.g\	.
.	16aa/	.	.
.	16gg/	.	.
.	16ff#/	.	.
.	16gg/	.	.
.	16dd/JJ)	.	.
=202	=202	=202	=202
2.G\]	(16aa/LL	2.c\ 2.f#\	.
.	16bb/	.	.
.	16aa/	.	.
.	16gg#/	.	.
.	16aa/	.	.
.	16dd/JJ)	.	.
.	(16ddd/LL	.	.
.	16ccc/	.	.
.	16bb/	.	.
.	16aa/	.	.
.	16ggn/	.	.
.	16ff#/JJ)	.	.
=203	=203	=203	=203
2.G\	16gg/LL	(4.B\ 4.g\	.
.	16aa/	.	.
.	16gg/	.	.
.	16ff#/	.	.
.	16gg/	.	.
.	16dd/JJ	.	.
.	(16ddd/LL	4.c\) 4.a\	.
.	16eee/	.	.
.	16ddd/	.	.
.	16ccc#/	.	.
.	16ddd/	.	.
.	16ff#/JJ)	.	.
=204	=204	=204	=204
2.G\	16gg/LL	(4.B\ 4.g\	.
.	16aa/	.	.
.	16gg/	.	.
.	16ff#/	.	.
.	16gg/	.	.
.	16dd/JJ	.	.
.	(16ddd/LL	4.c\) 4.a\	.
.	16eee/	.	.
.	16ddd/	.	.
.	16ccc#/	.	.
.	16ddd/	.	.
.	16ff#/JJ)	.	.
=205	=205	=205	=205
4G\	(16gg/LL	4B\ 4g\	.
.	16aa/	.	.
.	16gg/	.	.
.	16ff#/	.	.
8r	16gg/	8r	.
.	16aa/JJ)	.	.
4r	4.r	(16bb\LL	.
.	.	16ccc\	.
.	.	16bb\	.
.	.	16aa#\	.
8r	.	16bb\	.
.	.	16ccc\JJ)	.
*	*v	*v	*
=206	=206	=206
2.r	(16ddd\LL	.
.	16eee\	.
.	16ddd\	.
.	16ccc#\	.
.	16ddd\	.
.	16eee\JJ	.
.	16fffn\LL	.
.	16ddd\	.
.	16bb\	.
.	16gg\	.
.	16ffn\	.
.	16dd\JJ)	.
=207	=207	=207
4CC/ 4C/	8e'/ 8g'/ 8cc'/L	.
.	8d'/ 8f'/ 8b'/	.
8r	8e'/ 8g'/ 8cc'/J	.
4r	8f'/ 8a'/ 8dd'/L	.
.	8g'/ 8b'/ 8ee'/	.
8r	8a'/ 8cc'/ 8ff'/J	.
=208	=208	=208
4r	8b'\ 8dd'\ 8gg'\L	.
.	8cc'\ 8ee'\ 8aa'\	.
8r	8dd'\ 8ff'\ 8bb'\J	.
4r	8ee'\ 8gg'\ 8ccc'\L	.
.	8ff'\ 8aa'\ 8ddd'\	.
*clefG2	*	*
8gg'\	8ccc'\ 8eee'\J	.
=209	=209	=209
4aa'\	4ccc'\ 4fff'\	.
8gg'\	8ccc'\ 8eee'\	.
4aa'\	4ccc'\ 4fff'\	.
8gg'\	8ccc'\ 8eee'\	.
=210	=210	=210
4ff#'\	4ccc'\ 4ddd'\	.
8r	8r	.
4r	4r	.
8r	8r	.
=211	=211	=211
4g'/ 4cc'/	4ee'\ 4eee'\	.
8f#'/ 8cc'/	8dd#'\ 8ddd#'\	.
4g'/ 4cc'/	4ee'\ 4eee'\	.
8fn'/ 8cc'/	8ddn'\ 8dddn'\	.
=212	=212	=212
4e'/ 4g'/	4cc'\ 4ccc'\	.
8r	8r	.
4r	4r	.
8r	8ccc\	.
=213	=213	=213
4a'/ 4cc'/	4ff'\ 4fff'\	ff
8g'/ 8b'/	8ee'\ 8eee'\	.
4f'/ 4a'/	4dd'\ 4ddd'\	.
8e'/ 8g'/	8cc'\ 8ccc'\	.
=214	=214	=214
4d'/ 4f'/	4b'\ 4bb'\	.
8c'/ 8e'/	8a'\ 8aa'\	.
4B'/ 4d'/	4g'\ 4gg'\	.
8A'/ 8c'/	8f'\ 8ff'\	.
*clefF4	*	*
=215	=215	=215
4G'\ 4B'\	4e'/ 4ee'/	.
8F'\ 8A'\	8d'/ 8dd'/	.
4E'\ 4G'\	4c'/ 4cc'/	.
8D'\ 8F'\	8B'/ 8b'/	.
=216	=216	=216
*^	*	*
4A'/	4C'\ 4E'\	4a'/	.
8G#'/	8BB\ 8D\	8g#'/	.
4A'/	4C'\ 4E'\	4a'/	.
8F#'/	8AA'\ 8C'\	8f#'/	.
=217	=217	=217	=217
4Gn/	16GG\LL	4gn/	.
.	16BB\ 16D\	.	.
.	16G\	.	.
.	16BB\ 16D\	.	.
8r	16G\	8r	.
.	16BB\ 16D\JJ	.	.
4.r	16G\LL	4r	.
.	16BB\ 16D\	.	.
.	16G\	.	.
.	16BB\ 16D\	.	.
.	16G\	8r	.
.	16BB\ 16D\JJ	.	.
*v	*v	*	*
=218	=218	=218
16GG\LL	[4.ff\	p
16BB\ 16D\	.	.
16G\	.	.
16BB\ 16D\	.	.
16G\	.	.
16BB\ 16D\JJ	.	.
16FF\LL	(8ff\L]	.
16BB\ 16D\	.	.
16G\	8dd\	.
16BB\ 16D\	.	.
16G\	8b\J)	.
16BB\ 16D\JJ	.	.
=219	=219	=219
16EE\LL	(4gg\	.
16C\ 16E\	.	.
16G\	.	.
16C\ 16E\	.	.
16G\	16ee\LL	.
16C\ 16E\JJ	16cc\JJ)	.
16G\LL	(4gg\	.
16C\ 16E\	.	.
16G\	.	.
16C\ 16E\	.	.
16G\	16ee\LL	.
16C\ 16E\JJ	16cc\JJ)	.
=220	=220	=220
16GG\LL	[4.ff\	p
16BB\ 16D\	.	.
16G\	.	.
16BB\ 16D\	.	.
16G\	.	.
16BB\ 16D\JJ	.	.
16FF\LL	(8ff\L]	.
16BB\ 16D\	.	.
16G\	8dd\	.
16BB\ 16D\	.	.
16G\	8b\J)	.
16BB\ 16D\JJ	.	.
=221	=221	=221
16EE\LL	(4gg\	.
16C\ 16E\	.	.
16G\	.	.
16C\ 16E\	.	.
16G\	16ee\LL	.
16C\ 16E\JJ	16cc\JJ)	.
16G\LL	(4gg\	.
16C\ 16E\	.	.
16G\	.	.
16C\ 16E\	.	.
16G\	16ee\LL	.
16C\ 16E\JJ	16cc\JJ)	.
=222	=222	=222
16GG\LL	[4.ff\	p
16BB\ 16D\	.	.
16G\	.	.
16BB\ 16D\	.	.
16G\	.	.
16BB\ 16D\JJ	.	.
16FF\LL	(8ff\L]	.
16BB\ 16D\	.	.
16G\	8dd\	.
16BB\ 16D\	.	.
16G\	8b\J)	.
16BB\ 16D\JJ	.	.
=223	=223	=223
4EE/	8gg\L	.
.	8ee\	.
8B\	8b\J	.
8c\L	8cc\L	.
8e\	8ee\	.
8G#\J	8g#\J	.
=224	=224	=224
8A\L	8a/L	.
8c\	8cc/	.
8E\J	8e/J	.
8F\L	8f/L	.
8A\	8a/	.
8C#\J	8c#/J	.
=225	=225	=225
8D\L	8d/L	.
8F\	8f/	.
8E\J	8e/J	.
8D\L	8d/L	.
8E\	8e/	.
8F\J	8f/J	.
=226	=226	=226
8G\L	8g/L	.
8F#\	8f#/	.
8G\J	8g/J	.
8GG/L	8G/L	.
8AA/	8A/	.
8BB/J	8B/J	.
=227	=227	=227
4C/	8c/L	.
.	8e/	.
8r	8g/J	.
4r	8cc\L	.
.	8dd\	.
8r	8ee\J	.
=228	=228	=228
16GG\LL	[4.ff\	p
16BB\ 16D\	.	.
16G\	.	.
16BB\ 16D\	.	.
16G\	.	.
16BB\ 16D\JJ	.	.
16FF\LL	(8ff\L]	.
16BB\ 16D\	.	.
16G\	8dd\	.
16BB\ 16D\	.	.
16G\	8b\J)	.
16BB\ 16D\JJ	.	.
=229	=229	=229
16EE-\LL	(4gg\	.
16C\ 16E-\	.	.
16G\	.	.
16C\ 16E-\	.	.
16G\	16ee-\LL	.
16C\ 16E-\JJ	16cc\JJ)	.
16G\LL	(4gg\	.
16C\ 16E-\	.	.
16G\	.	.
16C\ 16E-\	.	.
16G\	16ee-\LL	.
16C\ 16E-\JJ	16cc\JJ)	.
=230	=230	=230
16GG\LL	[4.ff\	p
16BB\ 16D\	.	.
16G\	.	.
16BB\ 16D\	.	.
16G\	.	.
16BB\ 16D\JJ	.	.
16FF\LL	(8ff\L]	.
16BB\ 16D\	.	.
16G\	8dd\	.
16BB\ 16D\	.	.
16G\	8b\J)	.
16BB\ 16D\JJ	.	.
=231	=231	=231
16EE-\LL	(4gg\	.
16C\ 16E-\	.	.
16G\	.	.
16C\ 16E-\	.	.
16G\	16ee-\LL	.
16C\ 16E-\JJ	16cc\JJ)	.
16G\LL	(4gg\	.
16C\ 16E-\	.	.
16G\	.	.
16C\ 16E-\	.	.
16G\	16ee-\LL	.
16C\ 16E-\JJ	16cc\JJ)	.
=232	=232	=232
16BB-\LL	[4.aa-\	p
16D\ 16F\	.	.
16B-\	.	.
16D\ 16F\	.	.
16B-\	.	.
16D\ 16F\JJ	.	.
16AA-\LL	(8aa-\L]	.
16D\ 16F\	.	.
16B-\	8ff\	.
16D\ 16F\	.	.
16B-\	8dd\J)	.
16D\ 16F\JJ	.	.
=233	=233	=233
16GG\LL	(4bb-\	.
16E-\ 16G\	.	.
16B-\	.	.
16E-\ 16G\	.	.
16B-\	16gg\LL	.
16E-\ 16G\JJ	16ee-\JJ)	.
16B-\LL	(4bb-\	.
16E-\ 16G\	.	.
16B-\	.	.
16E-\ 16G\	.	.
16B-\	16gg\LL	.
16E-\ 16G\JJ	16ee-\JJ)	.
=234	=234	=234
16BB-\LL	[4.aa-\	p
16D\ 16F\	.	.
16B-\	.	.
16D\ 16F\	.	.
16B-\	.	.
16D\ 16F\JJ	.	.
16AA-\LL	(8aa-\L]	.
16D\ 16F\	.	.
16B-\	8ff\	.
16D\ 16F\	.	.
16B-\	8dd\J)	.
16D\ 16F\JJ	.	.
=235	=235	=235
*	*^	*
4GG/	8bb-/L	4r	.
.	8gg/	.	.
8r	8dd/J	8d\	.
4.r	8ee-/L	8e-\L	.
.	8gg/	8g\	.
.	8bn/J	8Bn\J	.
=236	=236	=236	=236
4r	8cc/L	8c\	.
.	8ee-/	8e-\	.
8G/	8g/J	8r	.
8A-\L	8a-/L	4.r	.
8c\	8cc/	.	.
8En\J	8en/J	.	.
=237	=237	=237	=237
4F\	8f/L	4r	.
.	8ccc/	.	.
8r	8ee/J	8e\	.
4r	8ff/L	8f\L	.
.	8aa-/	8a-\	.
8r	8cc#/J	8c#\J	.
=238	=238	=238	=238
4r	8dd/L	8d\L	.
.	8ff/	8f\J	.
8An\	8an/J	8r	.
8B-\L	8b-/L	4r	.
8d\	8dd/	.	.
8F#\J	8f#/J	8r	.
=239	=239	=239	=239
4G\	8g/L	4r	.
.	8ddd/	.	.
8r	8ff#/J	8f#\	.
4r	8gg/L	8g\L	.
.	8bb-/	8b-\	.
8r	8dd/J	8d\J	.
=240	=240	=240	=240
2.r	8ee-/L	8e-\L	.
.	8gg/	8g\	.
.	8bn/J	8Bn\J	.
.	8cc/L	8c\L	.
.	8ee-/	8e-\	.
.	8g/J	8G\J	.
*	*v	*v	*
=241	=241	=241
8A-\L	8a-/L	.
8c\	8cc/	.
8En\J	8en/J	.
8F\L	8f/L	.
8A-\	8a-/	.
8C#\J	8c#/J	.
=242	=242	=242
8D\L	8d/L	.
8F\	8f/	.
8AA#\J	8A#/J	.
8BB\L	8B/L	.
8D\	8d/	.
8FF#\J	8F#/J	.
=243	=243	=243
*^	*	*
8G/L	8GG\L	2.r	.
8B/	8BB\	.	.
8D/J	8DD\J	.	.
8E-/L	8EE-\L	.	.
8G/	8GG\	.	.
8BB/J	8BBB\J	.	.
=244	=244	=244	=244
8C/L	8CC\L	2.r	.
8E-/	8EE-\	.	.
8GG/J	8GGG\J	.	.
8AA-/L	8AAA-\L	.	.
8C/	8CC\	.	.
8FF#/J	8FFF#\J	.	.
=245	=245	=245	=245
8GG/L	[2.GGG\	4.r	p
8BB/	.	.	.
8D/J	.	.	.
4.FFn/	.	8G/L	.
.	.	8A/	.
.	.	8B/J	.
=246	=246	=246	=246
8c/L	4.GGG/_ 4.EE-/	4.r	.
8G/	.	.	.
8d/J	.	.	.
4.r	4.GGG/] 4.CC/	8e-/L	.
.	.	8G/	.
.	.	8f#/J	.
=247	=247	=247	=247
[2.G/	8GGG/L	(4.g/	.
.	8BBB/	.	.
.	8DD/J	.	.
.	8GG/L	4.fn/	.
.	8AA/	.	.
.	8BB/J	.	.
=248	=248	=248	=248
2.G/]	8C\L	4.e-/	.
.	8GG\	.	.
.	8D\J	.	.
.	8E-\L	4.c/)	.
.	8GG\	.	.
.	8F#\J	.	.
=249	=249	=249	=249
(4.G/	[2.GG\	8r	.
.	.	8B/L	.
.	.	8d/J	.
4.Fn/	.	8g/L	.
.	.	8a/	.
.	.	8b/J	.
=250	=250	=250	=250
4.E-/	2.GG\]	8cc/L	.
.	.	8g/	.
.	.	8dd/J	.
4.C/)	.	8ee-/L	.
.	.	8g/	.
.	.	8ff#/J	.
*v	*v	*	*
=251	=251	=251
*	*^	*
8GG/L	(4.gg/	[2.g\	.
8BB/	.	.	.
8D/J	.	.	.
8G\L	4.ffn/	.	.
8A\	.	.	.
8B\J	.	.	.
=252	=252	=252	=252
8c\L	4.ee-/	2.g\]	.
8G\	.	.	.
8d\J	.	.	.
8e-\L	4.cc/	.	.
8G\	.	.	.
8f#\J	.	.	.
*	*v	*v	*
=253	=253	=253
8g\	8b/)	.
*	*clefF4	*clefF4
8r	8F#'\L	.
8r	8G'\J	.
4r	8A'\L	.
.	8B'\	.
8r	8c'\J	.
*	*clefG2	*clefG2
=254	=254	=254
2.r	8d'/L	.
.	8e'/	.
.	8f#'/J	.
.	8g'/L	.
.	8a'/	.
.	8b'/J	.
=255	=255	=255
8G'\L	8B'/L	.
8F#'\	8A'/	.
8G'\J	8B'/J	.
8A'\L	8c'/L	.
8B'\	8d'/	.
8c'\J	8e'/J	.
*clefG2	*	*
=256	=256	=256
8d'/L	8f#'/L	.
8e'/	8g'/	.
8f#'/J	8a'/J	.
8g'/L	8b'\L	.
8a'/	8cc'\	.
8b'/J	8dd'\J	.
=257	=257	=257
8B'/L	8d'/ 8g'/L	.
8A'/	8c'/ 8f#'/	.
8B'/J	8d'/ 8g'/J	.
4r	8c'/ 8e'/ 8a'/L	.
.	8d'/ 8fn'/ 8b'/	.
8r	8e'/ 8g'/ 8cc'/J	.
=258	=258	=258
2.r	8f'\ 8a'\ 8dd'\L	.
.	8g'\ 8b'\ 8ee'\	.
.	8a'\ 8cc'\ 8ff'\J	.
.	8b'\ 8dd'\ 8gg'\L	.
.	8cc'\ 8ee'\ 8aa'\	.
.	8dd'\ 8ff'\ 8bb'\J	.
*clefF4	*	*
=259	=259	=259
8E'\ 8G'\ 8c'\L	[2.ccc/	ff
8D'\ 8F'\ 8B'\	.	.
8E'\ 8G'\ 8c'\J	.	.
8F'\ 8A'\ 8d'\L	.	.
8G'\ 8B'\ 8e'\	.	.
8A'\ 8c'\ 8f'\J	.	.
=260	=260	=260
*	*^	*
2.r	2.ccc/_	8B'\ 8d'\ 8g'\L	.
.	.	8c'\ 8e'\ 8a'\	.
.	.	8d\ 8f\ 8b\J	.
.	.	8e'\ 8g'\ 8cc'\L	.
.	.	8f'\ 8a'\ 8dd'\	.
.	.	8g'\ 8cc'\ 8ee'\J	.
=261	=261	=261	=261
2.r	2.ccc/_	4a'\ 4cc'\ 4ff'\	.
.	.	8g'\ 8cc'\ 8ee'\	.
.	.	4a'\ 4cc'\ 4ff'\	.
.	.	8g'\ 8cc'\ 8ee'\	.
=262	=262	=262	=262
2.r	2.ccc/_	4f'\ 4cc'\ 4dd'\	.
.	.	8r	.
.	.	4r	.
.	.	8r	.
=263	=263	=263	=263
2.r	2.ccc/_	4g'\ 4cc'\ 4ee'\	p
.	.	8f'\ 8cc'\ 8dd'\	.
.	.	4g'\ 4cc'\ 4ee'\	.
.	.	8f'\ 8cc'\ 8dd'\	.
=264	=264	=264	=264
2.r	2.ccc/]	4e'\ 4cc'\	.
.	.	8r	.
.	.	4r	.
.	.	8r	.
*clefG2	*	*	*
*	*v	*v	*
=265	=265	=265
[2.cc\	4aa'\ 4ccc'\ 4fff'\	.
.	8gg'\ 8ccc'\ 8eee'\	.
.	4aa'\ 4ccc'\ 4fff'\	.
.	8gg'\ 8ccc'\ 8eee'\	.
=266	=266	=266
2.cc\_	4ff#'\ 4ccc'\ 4ddd#'\	.
.	8r	.
.	4r	.
.	8r	.
=267	=267	=267
2.cc\_	4gg'\ 4ccc'\ 4eee'\	.
.	8ff#'\ 8ccc'\ 8ddd#'\	.
.	4gg'\ 4eee'\	.
.	8ffn'\ 8ccc'\ 8dddn'\	.
=268	=268	=268
2.cc\]	4ee'\ 4ccc'\	.
.	8r	.
.	4r	.
.	8ccc\	.
=269	=269	=269
8aa'\L	8ccc'\ 8fff'\L	.
8ff#'\	8aa'\ 8ddd#'\	.
8gg'\J	8bb'\ 8eee'\J	.
8ee'\L	8gg'\ 8ccc#'\L	.
8ffn'\	8aa\ 8dddn\	.
8dd'\J	8ff'\ 8bb'\J	.
=270	=270	=270
8ee'\L	8gg'\ 8ccc'\L	.
8cc#'\	8ee'\ 8aa#'\	.
8dd'\J	8ff'\ 8bb'\J	.
8b'\L	8dd'\ 8gg#'\L	.
8ccn'\	8ee'\ 8aan'\	.
8a'\J	8cc'\ 8ff#'\J	.
=271	=271	=271
8b'/L	8dd'\ 8gg'\L	.
8g#'/	8b'\ 8ee'\	.
8a'/J	8cc'\ 8ffn'\J	.
8f#'/L	8a'\ 8dd#'\L	.
8gn'/	8b'\ 8ee'\	.
8e'/J	8g'\ 8cc#'\J	.
=272	=272	=272
8fn'/L	8a'/ 8dd'/L	.
8d'/	8f'/ 8b'/	.
8e'/J	8g'/ 8cc'/J	.
8c#'/L	8e'/ 8a#'/L	.
8d'/	8f'/ 8b'/	.
8B'/J	8d'/ 8g#'/J	.
=273	=273	=273
8cn'/L	8e'/ 8a'/L	.
8B'/	8d'/ 8b'/	.
8A'/J	8c'/ 8cc'/J	.
8d'/L	8f'/ 8b'/L	.
8c'/	8e'/ 8cc'/	.
8B'/J	8d'/ 8dd'/J	.
=274	=274	=274
8e'/L	8gn'\ 8cc'\L	.
8d'/	8f'\ 8dd'\	.
8c'/J	8e'\ 8ee'\J	.
8f'/L	8a'\ 8dd'\L	.
8e'/	8g'\ 8ee'\	.
8d'/J	8f'\ 8ff'\J	.
=275	=275	=275
8g'/L	8b'\ 8ee'\L	.
8f'/	8a'\ 8ff'\	.
8e'/J	8g'\ 8gg'\J	.
8a'/L	8cc'\ 8ff'\L	.
8g'/	8b'\ 8gg'\	.
8f'/J	8a'\ 8aa'\J	.
=276	=276	=276
8b'/L	8dd'\ 8gg'\L	.
8a'/	8cc'\ 8aa'\	.
8g'/J	8b'\ 8bb'\J	.
8cc'/L	8ee'\ 8aa'\L	.
8b'/	8dd'\ 8bb'\	.
8a'/J	8cc'\ 8ccc'\J	.
=277	=277	=277
8dd'\L	8ff'\ 8bb'\L	.
8cc'\	8ee'\ 8ccc'\	.
8b'\J	8dd'\ 8ddd'\J	.
8ee'\L	8gg'\ 8ccc'\L	.
8dd'\	8ff'\ 8ddd'\	.
8cc'\J	8ee'\ 8eee'\J	.
=278	=278	=278
8ee'\L	8gg'\ 8ccc'\L	.
8dd'\	8ff'\ 8ddd'\	.
8cc'\J	8ee'\ 8eee'\J	.
8ee'\L	8gg'\ 8ccc'\L	.
8dd'\	8ff'\ 8ddd'\	.
8cc'\J	8ee'\ 8eee'\J	.
=279	=279	=279
4f''/ 4a''/ 4cc''/	4dd''\ 4aa''\ 4ccc''\ 4ddd''\	ff
8r	8r	.
4r	4r	.
8r	8r	.
=280	=280	=280
4f#''/ 4a''/ 4cc''/	4ee-''\ 4ff#''\ 4aa''\ 4ccc''\ 4eee-''\	ff
8r	8r	.
4r	4r	.
8r	8r	.
=281	=281	=281
4G''/ 4c''/ 4e''/ 4g''/	4een''\ 4gg''\ 4ccc''\ 4eeen''\	ff
8r	(24g/LL	.
.	24a/	.
.	24b/JJ)	.
4r	8cc'\L	.
.	8dd'\	.
8r	8ee'\J	.
=282	=282	=282
2.r	8ff'\L	.
.	8gg'\	.
.	8aa'\J	.
.	8bb'\L	.
.	8ccc'\	.
.	8ddd'\J	.
=283	=283	=283
2.r	(8eee\L	p
.	8fff\)	.
.	8ddd'\J	.
.	(8eee\L	.
.	8fff\)	.
.	8ddd'\J	.
=284	=284	=284
2.r	(8eee\L	.
.	8fff\)	.
.	8ddd'\J	.
.	(8eee\L	.
.	8fff\)	.
.	8ddd'\J	.
=285	=285	=285
.	cccq/	.
4r	[2.ddd\	ff
(32G/LLL	.	.
32A/	.	.
32B/	.	.
32c/JJJ)	.	.
8d'/L	.	.
8e'/	.	.
8f#'/J	.	.
=286	=286	=286
8g'\L	2.ddd\_	.
8a'\	.	.
8b'\J	.	.
8cc'\L	.	.
8dd'\	.	.
8ee'\J	.	.
=287	=287	=287
(8ffn\L	2.ddd\_	p
8gg\)	.	.
8ee'\J	.	.
(8ff\L	.	.
8gg\)	.	.
8ee'\J	.	.
=288	=288	=288
(8ff\L	2.ddd\_	.
8gg\)	.	.
8ee'\J	.	.
(8ff\L	.	.
8gg\)	.	.
8ee'\J	.	.
=289	=289	=289
[2.ff\	2.ddd\_	.
=290	=290	=290
2.ff\_	2.ddd\_	.
=291	=291	=291
*	*^	*
2.ff\_	2.ddd/_	[2.bb\	.
=292	=292	=292	=292
2.ff\]	2.ddd/_	2.bb\]	.
*	*v	*v	*
=293	=293	=293
2.r	2.ddd\_	.
=294	=294	=294
2.r	2.ddd\]	.
=295	=295	=295
2.r	[2.ddd#\	.
=296	=296	=296
2.r	2.ddd#\]	.
=297	=297	=297
2.r;	2.r;	.
*clefF4	*	*
=298	=298	=298
8AA/L	[2.ee\ [2.ccc#\ [2.eee\	.
8GG#/	.	.
8AA/J	.	.
8BB/L	.	.
8C#/	.	.
8D/J	.	.
=299	=299	=299
8E\L	4.ee\_ 4.ccc#\_ 4.eee\_	.
8F#\	.	.
8G#\J	.	.
8A\L	8ee\] 8ccc#\] 8eee\L]	.
8B\	8ee\ 8bb\ 8ddd\	.
8c#\J	8ee\ 8aa\ 8ccc#\J	.
=300	=300	=300
4d\	4ee\ 4gg#\ 4bb\	.
8c#\	8ee\ 8aa\ 8ccc#\	.
4d\	4ee\ 4gg#\ 4bb\	.
8c#\	8ee\ 8aa\ 8ccc#\	.
=301	=301	=301
4d\	4ee\ 4gg#\ 4bb\	.
8r	8r	.
4r	4r	.
8r	8ee\	.
=302	=302	=302
8A\L	[2.ee\ [2.ccc\ [2.eee\	.
8G#\	.	.
8A\J	.	.
8B\L	.	.
8cn\	.	.
8d\J	.	.
*clefG2	*	*
=303	=303	=303
8e/L	4.ee\_ 4.ccc\_ 4.eee\_	.
8f#/	.	.
8g#/J	.	.
8a/L	8ee\] 8ccc\] 8eee\L]	.
8b/	8ee\ 8bb\ 8ddd\	.
8ccn/J	8ee\ 8aa\ 8ccc\J	.
=304	=304	=304
4dd\	4ffn\ 4gg\ 4bb\	.
8ee\	8gg\ 8ccc\	.
4dd\	4ff\ 4gg\ 4bb\	.
8ee\	8gg\ 8ccc\	.
=305	=305	=305
4dd\	4ff\ 4gg\ 4bb\	.
8r	8r	.
4r;	4r;	.
8r	8gg\	ff
*clefF4	*	*
=306	=306	=306
8GGG/ 8GG/L	[2.ff\ [2.gg\ [2.bb\ [2.ddd\ [2.fff\	ff
8FFF#/ 8FF#/	.	.
8GGG/ 8GG/J	.	.
8AAA/ 8AA/L	.	.
8BBB/ 8BB/	.	.
8CC/ 8C/J	.	.
=307	=307	=307
8DD/ 8D/L	2.ff\] 2.gg\] 2.bb\] 2.ddd\] 2.fff\]	.
8EE/ 8E/	.	.
8FF/ 8F/J	.	.
8GG/ 8G/L	.	.
8AA/ 8A/	.	.
8BB/ 8B/J	.	.
=308	=308	=308
4C\ 4c\	8ee\ 8gg\ 8ccc\ 8eee\L	ff
.	8dd\ 8ddd\	.
8r	8cc\ 8ccc\J	.
4r	8b\ 8bb\L	.
.	8a\ 8aa\	.
8r	8g\ 8gg\J	.
=309	=309	=309
2.r	8f\ 8ff\L	.
.	8e\ 8ee\	.
.	8d\ 8dd\J	.
.	8c/ 8cc/L	.
.	8B/ 8b/	.
.	8A/ 8a/J	.
=310	=310	=310
2.r	4G/ 4g/	.
.	8r	.
.	4r	.
.	8r	.
=311	=311	=311
*^	*	*
4D/ 4F/ 4G/ 4B/	4GGG\ 4GG\	4r	.
8r	8r	8r	.
4r	4r	4r	.
8r	8r	8r	.
=312	=312	=312	=312
4E/ 4G/ 4c/	4CC\ 4C\	4r	.
8r	8r	8r	.
4r	4r	4r	.
8r	8r	8r	.
*v	*v	*	*
==	==	==
*-	*-	*-
!!!ENC: Craig Stuart Sapp
!!!END: 2008/01/25/
!!!hum2abc: --spacing 1.97 -s 0.721
